X:1
T:Way Out in Idaho
M:6/8
L:1/4
K:F
 C/2| F F/2 F F/2| F F/2 A/2A/2F/2| G G/2 F E/2| F3/2 z F/4F/4| B B/2 B B/2|\
 A c/2 c A/2| G F/2 F A/2| c3/2 z F/2| B B/2 B B/2| B/2 d- d d/2| c d/2 c A/2|\
 c3/2 z C/2| F F/2 F/2F/2G/2| A3/2 A F/2| G G/2 F E/2| F3/2 z C/2|\
 C F/2 F F/2| A3/2- A F/2| G G/2 F E/2| F3/2 z C/2| C F/2 F F/2| A A/2 A F/2|\
 G G/2 F E/2| F3/2 z|
